_includes/icons/color-ai-file-extension.svg

<svg fill="#666" height="50" viewBox="0 0 48 48" width="50" xmlns="http://www.w3.org/2000/svg"><path d="m41 45h-32v-42h22l10 10z" fill="#ffa000"/><path d="m39.5 14h-9.5v-9.5z" fill="#fff3e0"/><g fill="#fff"><path d="m24.292969 30.964844h-2.742188l-.53125 2.035156h-2.128906l3.113281-9.953125h1.835938l3.132812 9.953125h-2.148437zm-2.304688-1.675781h1.859375l-.929687-3.550782z"/><path d="m30 33h-2v-9.953125h2z"/></g></svg>

<svg xmlns="http://www.w3.org/2000/svg" viewBox="0 0 48 48" width="50" height="50" fill="#666"><path d="M 41 45 L 9 45 L 9 3 L 31 3 L 41 13 Z" fill="#ffa000"/><path d="M 39.5 14 L 30 14 L 30 4.5 Z" fill="#fff3e0"/><path d="M 24.292969 30.964844 L 21.550781 30.964844 L 21.019531 33 L 18.890625 33 L 22.003906 23.046875 L 23.839844 23.046875 L 26.972656 33 L 24.824219 33 Z M 21.988281 29.289063 L 23.847656 29.289063 L 22.917969 25.738281 Z" fill="#fff"/><path d="M 30 33 L 28 33 L 28 23.046875 L 30 23.046875 Z" fill="#fff"/></svg>
